X: 15
T: Lad O'Beirne's
C: Lad O'Beirne
Z: Gunnar Claussen
S: https://thesession.org/tunes/406#setting53618
R: reel
M: 4/4
L: 1/8
K: Gmaj
|:DG ~G2 DGBG|(3ABc BG AGEG|DGGF GABd|(3efg dg efge|
dB ~B2 dBGB|cE ~E2 GE DB,|DEGA B2 (3ABc|dBAc BG G2:|
|:Bdd^c d2 (3Bcd|egdg efge|dB ~B2 dBGB|cE ~E2 GE DB,|
Bdd^c d2 ef|gagf gedB|DEGA B2 (3ABc|dBAc BG G2:|

%-------------------- TUNE SEPARATOR --------------------%

